X: 08058
T: JOHNNY FAREWELL
C: Bob McQuillen 7 Jan 91
B: Bob's Note Book 8 #58
%R: jig
Z: 2021 John Chambers <jc:trillian.mit.edu>
M: 6/8
L: 1/8
K: D
DE \
| FAB AFE | FAB A2d | BdA Bdf | e2d BDE |\
| FAB AFA | Bdf e2f | dBd AFD | FEE E :|
|: FG \
| A2F AFA | BAF EFA | B2A Bde | fed BAB |\
| dfd efe | dBd A2A | Bdf edB | AFD E :|
%%begintext align
%% That was what I said to John Brennan
%% when he took himself and his fiddle down to
%% Florida for the winter. I'm glad he came back.
%% Philly's a lot closer than Florida!
%%endtext

%%sep 1 1 500

%%sep 1 1 500

